X: 09262
M: 6/8
L: 1/8
K: D
V: 1 clef=treble middle=B
def fed | cBB B2B | Bee ecc | dAd d2 :|
|: d |\
dBB B^AB | cBc dBB | dBB B^AB | cBc dBB |\
V: 2 clef=bass middle=d
z |\
dfa dfa | dgb dfa | dfa Be^g | Aea Aea |\
dfa dfa | GBd GBd | GBe Aeg | dfa d2 :|
|: z |\
c'3 c3 | d'3 d3 | a3 A3 | d3 D2 :|

